app/dist/common/images/atreca.svg

<svg height="18" viewBox="0 0 18 18" width="18" xmlns="http://www.w3.org/2000/svg"><path d="m0 0h18v18h-18z" fill="#232579"/><path d="m5.3 9.17.02.01 1.65-.62-.28-1.69 2.3-3.87-.59 4.53-1.7-.66 1.46 2.33h-2.83l1.43 1.07-3.76 2.73zm-2.3 3.83 4.35-1.75.26 1.75zm8.3-6.15v.01l-.27 1.68 1.65.64h.01l2.31 3.82-3.76-2.74 1.43-1.07h-2.82l1.4-2.3-1.66.63-.6-4.49 2.29 3.8.03-.05-.02.07zm3.7 6.15h-4.61l-1.4-1.07-1.38 1.07 1.39-2.38 1.4 2.38.26-1.75z" fill="#fff"/></svg>

<!-- by TradingView --><svg xmlns="http://www.w3.org/2000/svg" width="18" height="18" viewBox="0 0 18 18"><path fill="#232579" d="M0 0h18v18H0z"/><path d="M5.3 9.17l.02.01 1.65-.62-.28-1.69L8.99 3 8.4 7.53l-1.7-.66L8.16 9.2H5.33l1.43 1.07L3 13l2.3-3.83zM3 13l4.35-1.75.26 1.75H3zm8.3-6.15v.01l-.27 1.68 1.65.64h.01L15 13l-3.76-2.74 1.43-1.07H9.85l1.4-2.3-1.66.63-.6-4.49 2.29 3.8.03-.05-.02.07zM15 13h-4.61l-1.4-1.07L7.61 13 9 10.62 10.4 13l.26-1.75L15 13z" fill="#fff"/></svg>
